svgs/light/message-slash.svg

<svg xmlns="http://www.w3.org/2000/svg" viewBox="0 0 640 512"><!--! Font Awesome Pro 6.3.0 by @fontawesome - https://fontawesome.com License - https://fontawesome.com/license (Commercial License) Copyright 2023 Fonticons, Inc. --><path d="M512 32c17.6 0 32 14.4 32 32v287.3l28.03 22.13c2.418-6.732 3.968-13.9 3.968-21.45V63.1c0-35.25-28.75-63.1-63.1-63.1H127.1c-8.207 0-16 1.689-23.22 4.525L139.6 32H512zM367.9 384c-6.928 0-13.67 2.248-19.21 6.406L256 460v-60c0-8.838-7.164-16-16-16H128c-17.6 0-32-14.4-32-32V160.7L64 135.4l-.0002 216.6c0 35.25 28.75 63.1 63.1 63.1h95.1v83.99c0 9.838 11.03 15.55 19.12 9.7l124.9-93.69l51.39 .0238l-40.53-32H367.9zM633.9 483.4L25.9 3.418C18.1-2.02 8.936-.8477 3.436 6.059c-5.469 6.938-4.281 17 2.656 22.49l608 480C617 510.9 620.5 512 624 512c4.719 0 9.406-2.094 12.56-6.078C642 498.1 640.8 488.9 633.9 483.4z"/></svg>

<svg xmlns="http://www.w3.org/2000/svg" viewBox="0 0 640 512"><!-- Font Awesome Pro 6.0.0-alpha2 by @fontawesome - https://fontawesome.com License - https://fontawesome.com/license (Commercial License) --><path d="M512 32C529.6 32 544 46.4 544 64V351.297L572.031 373.428C574.449 366.695 576 359.549 576 352.002V64C576 28.75 547.25 0 512 0H128C119.793 0 111.998 1.693 104.775 4.529L139.57 32H512ZM367.924 384.002C360.996 384.002 354.254 386.25 348.713 390.408L256 460.002V400.002C256 391.164 248.836 384.002 240 384.002H128C110.4 384.002 96 369.602 96 352.002V160.684L64 135.42V352.002C64 387.252 92.75 416.002 128 416.002H224V500.002C224 509.84 235.025 515.479 243.125 509.627L368 416.002H419.392L378.861 384.002H367.924ZM633.908 483.436L25.904 3.418C18.998 -2.02 8.935 -0.848 3.435 6.059C-2.033 12.996 -0.846 23.061 6.092 28.545L614.096 508.563C617.033 510.875 620.533 512 624.002 512C628.721 512 633.408 509.906 636.564 505.922C642.033 498.984 640.846 488.92 633.908 483.436Z"/></svg>
